!!!OTL: How Can I Be Sad on my Wedding Day 
!!!id: HA036
**kern
*clefF4
*k[f#c#]
*D:
*M6/8
{8dd
=1
8.a
16b
8a
8a
8f#
8d
=2
8f#
8a
8b
4cc#}
{8a
=3
8.b
16cc#
8b
8b
8g
8e
=4
8g
8b
8cc#
4dd}
{8dd
=5
8.d
16e
8d
8dd
8ee
8ff#
=6
8ee
8ff#
8dd
8cc#
8b}
{8a
=7
8b
8ee
8cc#
8b
8g
8e
=8
8g
8b
8cc#
4dd}
{8dd
=9
8.d
16e
8d
8dd
8ee
8ff#
=10
8ee
8ff#
8dd
8cc#
8b}
{8a
=11
8b
8g
8e
8b
8g
8e
=12
8g
8b
8cc#
4dd}
{8dd
=13
8.d
16e
8d
8dd
8ee
8ff#
=14
8ee
8ff#
8dd
8cc#
8b}
{8a
=15
8b
8ee
8cc#
8b
8g
8e
=16
8g
8b
8cc#
4dd}
==
*-
!!!minrhy: 16
!!!meter: 6/8 
!!!cut: How Can I Be Sad on my Wedding Day 
!!!key: HA036  16  D 6/8 
!!!fog: a--b--c--bv-c--bv'c--bv-
!! Haydn: Volksliedbearbeitungen, Bd1
